src/svg/icons/index-icon.svg

<svg width="20px" height="20px" viewBox="0 0 20 20">
  <g stroke="none" stroke-width="1" fill="none" fill-rule="evenodd">
    <path
      d="M14.25,5 C15.0784271,5 15.75,5.67157288 15.75,6.5 C15.75,6.56462907 15.7459127,6.62830348 15.7379824,6.69077886
                L18.0995934,9.05403556 C18.2270581,9.01881652 18.3613316,9 18.5,9 C19.3284271,9 20,9.67157288 20,10.5 C20,11.3284271 19.3284271,12
                18.5,12 C18.3616899,12 18.227752,11.9812806 18.1005816,11.9462371 L15.7379824,14.3092211 C15.7459127,14.3716965 15.75,14.4353709
                15.75,14.5 C15.75,15.3284271 15.0784271,16 14.25,16 C13.4215729,16 12.75,15.3284271 12.75,14.5 C12.75,14.4398639 12.7535388,14.3805543
                12.7604195,14.3222681 L9.992,11.553 L7.23785483,14.308219 C7.24586883,14.3710155 7.25,14.4350253 7.25,14.5 C7.25,15.3284271 6.57842712,16
                5.75,16 C4.92157288,16 4.25,15.3284271 4.25,14.5 C4.25,14.4398639 4.2535388,14.3805543 4.2604195,14.3222681 L1.88753839,11.949458
                C1.76391601,11.9824264 1.63401027,12 1.5,12 C0.671572875,12 0,11.3284271 0,10.5 C0,9.67157288 0.671572875,9 1.5,9 C1.63436859,9 1.76461066,9.0176677
                1.88852988,9.05080676 L4.2604195,6.67773193 C4.2535388,6.61944574 4.25,6.56013614 4.25,6.5 C4.25,5.67157288 4.92157288,5 5.75,5 C6.57842712,5 7.25,5.67157288
                7.25,6.5 C7.25,6.56462907 7.24591266,6.62830348 7.23798239,6.69077886 L9.992,9.446 L12.7603012,6.6767269 C12.7534982,6.618764 12.75,6.55979053 12.75,6.5
                C12.75,5.67157288 13.4215729,5 14.25,5 Z M13.6734895,7.88521119 L11.06,10.499 L13.6745058,13.1143658 C13.8517202,13.0406798 14.0461095,13 14.25,13
                C14.4492124,13 14.6393544,13.0388344 14.8132689,13.1093459 L17.0469045,10.8736294 C17.0162826,10.7541847 17,10.6289938 17,10.5 C17,10.3699312
                17.0165551,10.2437291 17.047673,10.1233857 L14.8142897,7.89023975 C14.6400986,7.96101341 14.4496022,8 14.25,8 C14.0457196,8 13.8509769,7.9591645
                13.6734895,7.88521119 Z M5.17348946,7.88521119 L2.9489278,10.1104789 C2.98223795,10.2346947 3,10.3652731 3,10.5 C3,10.6343686 2.9823323,10.7646107
                2.94919324,10.8885299 L5.1745058,13.1143658 C5.3517202,13.0406798 5.54610947,13 5.75,13 C5.94921236,13 6.13935445,13.0388344 6.31326886,13.1093459
                L8.924,10.499 L6.31428969,7.89023975 C6.14009861,7.96101341 5.94960221,8 5.75,8 C5.54571962,8 5.35097688,7.9591645 5.17348946,7.88521119 Z"
      class="fill-gray-700 dark:fill-gray-300"
      fill-rule="nonzero"
    ></path>
  </g>
</svg>

<svg viewBox="0 0 20 20" xmlns="http://www.w3.org/2000/svg" fill="currentColor">
  <path
    d="M14.25 5a1.5 1.5 0 011.488 1.69L18.1 9.055A1.501 1.501 0 0120 10.5a1.5 1.5 0 01-1.9 1.446l-2.362 2.363a1.5 1.5 0 11-2.978.013l-2.768-2.769-2.754 2.755a1.5 1.5 0 11-2.977.014L1.887 11.95A1.502 1.502 0 010 10.5a1.5 1.5 0 011.889-1.45L4.26 6.679a1.5 1.5 0 112.978.013l2.754 2.755 2.768-2.77A1.5 1.5 0 0114.25 5zm-.577 2.885L11.06 10.5l2.615 2.615a1.495 1.495 0 011.138-.005l2.234-2.235a1.503 1.503 0 010-.75L14.815 7.89a1.496 1.496 0 01-1.14-.005zm-8.5 0L2.95 10.11a1.502 1.502 0 010 .779l2.226 2.225a1.495 1.495 0 011.138-.005l2.611-2.61-2.61-2.609a1.496 1.496 0 01-1.14-.005z"
    fill-rule="nonzero" />
</svg>
